src/assets/methodology.svg

<?xml version="1.0" encoding="UTF-8" standalone="no"?>
<svg
   xmlns:dc="http://purl.org/dc/elements/1.1/"
   xmlns:cc="http://creativecommons.org/ns#"
   xmlns:rdf="http://www.w3.org/1999/02/22-rdf-syntax-ns#"
   xmlns:svg="http://www.w3.org/2000/svg"
   xmlns="http://www.w3.org/2000/svg"
   width="24.705027mm"
   height="24.705379mm"
   viewBox="0 0 24.705026 24.705379"
   version="1.1"
   id="svg6165">
  <defs
     id="defs6159" />
  <metadata
     id="metadata6162">
    <rdf:RDF>
      <cc:Work
         rdf:about="">
        <dc:format>image/svg+xml</dc:format>
        <dc:type
           rdf:resource="http://purl.org/dc/dcmitype/StillImage" />
        <dc:title></dc:title>
      </cc:Work>
    </rdf:RDF>
  </metadata>
  <g
     id="layer1"
     transform="translate(-406.10034,-159.91516)">
    <g
       id="g7466-2"
       transform="translate(276.35163,138.15913)">
      <g
         transform="matrix(0.35277777,0,0,-0.35277777,46.009729,56.354144)"
         id="g1846-10">
        <g
           id="g1158-0"
           transform="translate(307.40035,63.058388)"
           style="fill:#874493;fill-opacity:1">
          <path
             d="M 0,0 C 0,-19.339 -15.677,-35.016 -35.015,-35.016 -54.354,-35.016 -70.03,-19.339 -70.03,0 -70.03,19.338 -54.354,35.015 -35.015,35.015 -15.677,35.015 0,19.338 0,0"
             style="fill:#874493;fill-opacity:1;fill-rule:nonzero;stroke:none"
             id="path1160-13" />
        </g>
        <g
           id="g1162-3"
           transform="matrix(0.72579364,0.13417649,-0.13417649,0.72579364,282.67499,46.843508)"
           style="stroke-width:1.35484469">
          <path
             id="path1164-0"
             d="M 0,0 C -6.0509412,-0.13820269 -11.624266,4.913708 -12.061379,10.951617 -12.767543,16.747316 -8.6979186,22.646293 -2.9820937,23.942879 2.4850584,25.457382 8.7116047,22.542354 11.03919,17.368734 13.627805,12.110781 11.731092,5.1646949 6.7663017,2.0181679 4.7766693,0.69160418 2.3881347,-0.00299072 0,0 Z M 21.762,15.781 C 21.209851,17.570608 21.077101,19.562433 20.021641,21.145281 18.563544,22.314229 16.428539,19.759496 15.153,21.269 14.469144,22.832001 12.6401,23.835674 12.377703,25.494047 13.619237,27.128011 14.863318,29.664155 12.118,30.547 10.417362,31.255937 7.6223299,34.169752 6.3929063,31.372375 5.8178376,29.071022 3.8209529,29.036106 1.875,29.68 -0.59828614,29.105221 -1.0651346,31.286979 -1.48,33.133 -2.7676956,35.10502 -5.5415474,33.134937 -7.353625,32.878875 -10.673006,32.546938 -8.1740724,29.252493 -8.8291094,27.476031 -10.322762,26.612331 -11.503707,25.184422 -13.035,24.471 -14.812062,25.305186 -17.273001,27.257826 -18.28057,24.333648 -19.260371,22.532624 -22.023828,19.387573 -18.815937,18.307596 -15.96655,17.62379 -17.670287,14.735393 -17.60109,12.752787 -17.465113,10.253107 -21.414121,11.766498 -21.769131,9.5707461 -21.618287,7.5549313 -21.018904,5.5570258 -20.276,3.683 -18.963329,1.3226214 -15.499004,5.3645741 -14.537078,2.2608906 -13.454836,0.71820287 -11.239986,-0.85816518 -13.141109,-2.6926094 -15.360924,-5.1821021 -11.469184,-6.4613364 -9.802,-7.512 -7.5849921,-9.5606737 -6.0960793,-7.0726447 -5.220625,-5.2108594 -3.4653304,-4.681963 -1.3164386,-5.575779 0.50425,-5.71425 1.3722974,-7.2077925 1.2328708,-10.571279 3.8866328,-9.523418 5.6245319,-9.0675236 7.4902911,-8.78225 9.02925,-7.8137656 9.9531029,-5.9276636 7.1417522,-3.0221772 10.358332,-2.132832 11.754562,-0.62955084 13.503269,0.55104833 15.207828,-1.2030605 17.284397,-2.9263984 18.447981,0.19674651 19.303266,1.5963906 20.868159,3.2532403 20.833673,5.6921989 18.396551,6.3006934 15.862047,7.3039987 18.106527,10.473241 17.793875,12.434719 18.917991,13.835527 22.735689,12.867413 21.762,15.781 Z"
             style="fill:#ffffff;fill-opacity:1;fill-rule:nonzero;stroke:none;stroke-width:1.35484469" />
        </g>
        <g
           style="stroke-width:1.84436369"
           transform="matrix(0.53008204,-0.11395472,0.11395472,0.53008204,258.87062,67.821854)"
           id="g1836-0">
          <path
             id="path1834-0"
             d="M 0,0 C -6.0509412,-0.13820269 -11.624266,4.913708 -12.061379,10.951617 -12.767543,16.747316 -8.6979186,22.646293 -2.9820937,23.942879 2.5824466,25.495939 8.9129181,22.427797 11.156412,17.113015 13.624809,11.790384 11.563133,4.8825815 6.5153559,1.8562903 4.5776342,0.63344041 2.2884326,-0.00202138 0,0 Z M 21.762,15.781 C 20.930719,17.556214 21.344321,22.059076 18.365,21.317 16.719305,20.552331 14.949185,20.567012 14.292973,22.53967 13.039589,23.921713 11.459161,25.551881 13.355625,27.240125 15.292032,29.840466 11.054524,30.922181 9.449127,32.038178 7.3941817,33.82107 6.1525878,31.12786 5.3381562,29.579937 3.5703057,29.108395 1.0683106,29.660604 -0.63089063,30.258672 -1.2810436,31.534724 -1.0441033,34.434389 -3.2050469,33.957406 -5.1588327,33.190466 -9.6951929,33.507547 -9.13075,30.5125 -7.8295358,28.39738 -9.1298383,26.864797 -11.0005,25.901316 -12.359046,23.854152 -14.320815,24.736275 -15.947,25.946 -18.385814,26.024185 -18.999996,22.514487 -20.221562,20.828594 -21.605485,18.103016 -16.240604,18.556776 -17.18325,15.994125 -17.670838,14.019133 -16.959186,10.881481 -19.891447,10.953795 -22.447899,10.872118 -21.766425,8.1042468 -21.194922,6.48675 -20.845729,4.7944469 -20.120116,1.8789164 -17.786062,3.1324687 -15.186601,4.8126768 -14.353548,1.5108935 -12.867859,0.14317188 -10.820036,-1.6076207 -15.638621,-3.9355394 -13.065375,-5.535625 -11.169715,-6.3943355 -8.9033881,-9.1082311 -6.8092031,-7.8518125 -5.9423274,-6.3116509 -5.0819575,-4.0623047 -2.895125,-5.2015 -0.65172049,-5.1681701 1.4353205,-5.67508 1.4038301,-8.3370703 1.9446149,-10.733252 4.7707189,-9.1893968 6.3372783,-8.8973423 8.5633749,-8.7302217 10.132865,-7.0244972 8.8516406,-4.87175 7.9412097,-2.4354867 11.624676,-1.7739726 12.819125,-0.202875 14.433077,0.01079095 15.936281,-2.7410674 17.473,-1.271 18.590036,0.64704785 20.696674,2.6964817 20.326578,5.0070625 19.144159,6.2465526 16.16443,6.6161645 17.379953,8.9703125 17.473908,11.056469 17.485714,13.560947 20.235,13.44225 21.525726,13.583856 22.185658,14.513105 21.762,15.781 Z"
             style="fill:#ffffff;fill-opacity:1;fill-rule:nonzero;stroke:none;stroke-width:1.84436369" />
        </g>
      </g>
    </g>
  </g>
</svg>

<svg xmlns="http://www.w3.org/2000/svg" width="93.373" height="93.375" viewBox="0 0 24.705 24.705"><g style="fill:#874493;fill-opacity:1"><path d="M0 0c0-19.339-15.677-35.016-35.015-35.016C-54.354-35.016-70.03-19.339-70.03 0c0 19.338 15.676 35.015 35.015 35.015C-15.677 35.015 0 19.338 0 0" style="fill:#874493;fill-opacity:1;fill-rule:nonzero;stroke:none" transform="matrix(.35278 0 0 -.35278 24.705 12.353)"/></g><g style="stroke-width:1.35484469"><path d="M0 0c-6.05-.138-11.624 4.914-12.061 10.952-.707 5.795 3.363 11.694 9.079 12.99 5.467 1.515 11.694-1.4 14.021-6.573 2.589-5.258.692-12.204-4.273-15.35C4.776.691 2.388-.004 0 0zm21.762 15.781c-.552 1.79-.685 3.781-1.74 5.364-1.458 1.17-3.593-1.386-4.869.124-.684 1.563-2.513 2.567-2.775 4.225 1.241 1.634 2.485 4.17-.26 5.053-1.7.709-4.496 3.623-5.725.825-.575-2.301-2.572-2.336-4.518-1.692-2.473-.575-2.94 1.607-3.355 3.453-1.288 1.972-4.062.002-5.874-.254-3.319-.332-.82-3.627-1.475-5.403-1.494-.864-2.675-2.292-4.206-3.005-1.777.834-4.238 2.787-5.246-.137-.98-1.801-3.743-4.946-.535-6.026 2.85-.684 1.146-3.573 1.215-5.555.136-2.5-3.813-.987-4.168-3.182.15-2.016.75-4.014 1.493-5.888 1.313-2.36 4.777 1.682 5.739-1.422 1.082-1.543 3.297-3.12 1.396-4.954-2.22-2.49 1.672-3.768 3.339-4.819 2.217-2.049 3.706.44 4.581 2.301 1.756.529 3.905-.365 5.725-.503.868-1.494.729-4.857 3.383-3.81 1.738.456 3.603.742 5.142 1.71.924 1.886-1.887 4.792 1.33 5.681 1.396 1.503 3.144 2.684 4.849.93 2.076-1.723 3.24 1.4 4.095 2.8 1.565 1.656 1.53 4.095-.906 4.704-2.535 1.003-.29 4.172-.603 6.134 1.124 1.4 4.942.432 3.968 3.346z" style="fill:#fff;fill-opacity:1;fill-rule:nonzero;stroke:none;stroke-width:1.35484469" transform="scale(.26038 -.26038) rotate(10.474 409.32 300.132)"/></g><g style="stroke-width:1.84436369"><path d="M0 0c-6.05-.138-11.624 4.914-12.061 10.952-.707 5.795 3.363 11.694 9.079 12.99 5.564 1.554 11.895-1.514 14.138-6.829 2.469-5.323.407-12.23-4.64-15.257C4.577.633 2.287-.002 0 0zm21.762 15.781c-.831 1.775-.418 6.278-3.397 5.536-1.646-.765-3.416-.75-4.072 1.223-1.253 1.382-2.834 3.012-.937 4.7 1.936 2.6-2.301 3.682-3.907 4.798-2.055 1.783-3.296-.91-4.11-2.458-1.769-.472-4.27.08-5.97.679-.65 1.276-.413 4.175-2.574 3.698-1.954-.767-6.49-.45-5.926-3.445 1.301-2.115.001-3.647-1.87-4.61-1.358-2.048-3.32-1.166-4.946.044-2.439.078-3.053-3.432-4.275-5.117-1.383-2.726 3.981-2.272 3.039-4.835-.488-1.975.224-5.113-2.708-5.04-2.557-.082-1.875-2.85-1.304-4.467.35-1.693 1.075-4.608 3.409-3.355 2.6 1.68 3.432-1.621 4.918-2.989 2.048-1.75-2.77-4.079-.197-5.679 1.895-.858 4.162-3.572 6.256-2.316.867 1.54 1.727 3.79 3.914 2.65 2.243.034 4.33-.473 4.299-3.135.54-2.396 3.367-.852 4.933-.56 2.226.167 3.796 1.873 2.515 4.025-.91 2.437 2.773 3.098 3.967 4.67 1.614.213 3.117-2.54 4.654-1.069 1.117 1.918 3.224 3.967 2.854 6.278-1.183 1.24-4.163 1.61-2.947 3.963.094 2.086.106 4.59 2.855 4.472 1.29.142 1.95 1.071 1.527 2.339z" style="fill:#fff;fill-opacity:1;fill-rule:nonzero;stroke:none;stroke-width:1.84436369" transform="matrix(.187 .0402 .0402 -.187 7.585 10.672)"/></g></svg>
